material/.icons/material/volume-vibrate.svg

<svg xmlns="http://www.w3.org/2000/svg" viewBox="0 0 24 24"><path d="M4 9v6h4l5 5V4L8 9H4m12.55-6.53L15.5 3.53 17.93 6 15 9l2.93 3L15 15l2.93 3-2.43 2.47 1.05 1.06L20 18l-2.93-3L20 12l-2.93-3L20 6l-3.45-3.53z"/></svg>

<?xml version="1.0" encoding="UTF-8"?><!DOCTYPE svg PUBLIC "-//W3C//DTD SVG 1.1//EN" "http://www.w3.org/Graphics/SVG/1.1/DTD/svg11.dtd"><svg xmlns="http://www.w3.org/2000/svg" xmlns:xlink="http://www.w3.org/1999/xlink" version="1.1" id="mdi-volume-vibrate" width="24" height="24" viewBox="0 0 24 24"><path d="M4 9V15H8L13 20V4L8 9H4M16.55 2.47L15.5 3.53L17.93 6L15 9L17.93 12L15 15L17.93 18L15.5 20.47L16.55 21.53L20 18L17.07 15L20 12L17.07 9L20 6L16.55 2.47Z" /></svg>
